img/culture/excellence.svg

<svg height="120" viewBox="0 0 120 120" width="120" xmlns="http://www.w3.org/2000/svg"><g fill="none" fill-rule="evenodd"><path d="m61.664 84.8905-7.664-11.496v-10.3945c0-14.91175-12.08825-27-27-27s-27 12.08825-27 27v55c-.00025 1.10425.89475 1.99975 1.999 2h22.001c1.10425.00025 1.99975-.89475 2-1.999v-14.001h26c1.10425.00025 1.99975-.89475 2-1.999v-14.001h6c1.1045 0 2-.89525 2-1.99975 0-.395-.11675-.781-.336-1.10975zm-9.664-.8905c-1.10425-.00025-1.99975.89475-2 1.999v.001 14h-26c-1.10425-.00025-1.99975.89475-2 1.999v.001 14h-18v-53c0-12.7025 10.2975-23 23-23s23 10.2975 23 23v11c.00025.39475.117.78075.336 1.1095l5.92775 8.8905z" fill="#4a4a4a" fill-rule="nonzero"/><path d="m28 54c-3.31375 0-6 2.68625-6 6 .0035 3.31225 2.68775 5.9965 6 6 3.31375 0 6-2.68625 6-6s-2.68625-6-6-6zm0 8c-1.1045 0-2-.8955-2-2 .001-1.104.896-1.999 2-2 1.1045 0 2 .8955 2 2s-.8955 2-2 2z" fill="#62b60a" fill-rule="nonzero"/><path d="m42.7755 56.34475-2.3105-1.1895c-.07025-.17975-.1445-.3595-.2245-.538l.793-2.4805c.1975-.6215.08025-1.30025-.3145-1.81925-.87025-1.143-1.8905-2.1635-3.03325-3.03425-.52-.39525-1.19975-.513-1.82225-.3155l-2.4805.792c-.17775-.079-.3575-.15425-.537-.2245l-1.1915-2.3105c-.3425-.66575-1.0285-1.08425-1.77725-1.084h-3.754c-.74875-.00025-1.43475.41825-1.77725 1.084l-1.1915 2.3105c-.17975.07025-.3575.1455-.53525.2245l-2.4805-.793c-.6225-.1985-1.3025-.08125-1.82225.3145-1.143.87175-2.16375 1.893-3.03525 3.036-.3945.51925-.512 1.19775-.3145 1.81925l.793 2.4805c-.08.17875-.15425.3585-.2245.538l-2.3105 1.1895c-.66575.34325-1.084 1.02925-1.084 1.77825v3.75275c-.00025.74875.41825 1.43475 1.084 1.77725l2.3105 1.1915c.07025.17975.1445.3585.2245.538l-.793 2.4805c-.1975.6215-.08 1.30025.3145 1.81925.87025 1.143 1.8905 2.1635 3.03325 3.03425.51875.398 1.2.516 1.82225.3155l2.4805-.792c.17775.079.3575.15425.537.2245l1.1915 2.3105c.3425.66575 1.0285 1.08425 1.77725 1.084h3.754c.74875.00025 1.43475-.41825 1.77725-1.084l1.1915-2.3105c.17975-.07025.3575-.1455.537-.2245l2.4785.792c.62175.197 1.30025.08025 1.82025-.3135 1.14475-.8705 2.16625-1.89175 3.037-3.03625.3945-.51925.51175-1.19775.3145-1.81925l-.793-2.4805c.08-.17875.15425-.3585.2245-.538l2.3105-1.1895c.66575-.34325 1.084-1.0295 1.084-1.77825v-3.754c.0005-.74825-.41775-1.4345-1.0835-1.77775zm-2.916 4.3125-1.92975.99425c-.47475.24475-.832.66925-.99225 1.17875-.16275.511-.36975 1.00675-.61925 1.4815-.244.47275-.29125 1.023-.13075 1.53025l.70125 2.19625c-.26825.298-.552.582-.8495.8505l-2.19525-.70125c-.50675-.162-1.05725-.11525-1.52925.13-.4775.24925-.97525.4575-1.48825.622-.5075.161-.93.51775-1.17375.99125l-.99425 1.92875h-1.3165l-.99425-1.92875c-.24375-.4735-.66625-.83025-1.17375-.99125-.513-.1645-1.01075-.37275-1.48825-.622-.472-.24525-1.0225-.292-1.52925-.13l-2.19525.70125c-.2975-.269-.581-.55275-.8495-.8505l.70125-2.19625c.16025-.50725.11325-1.0575-.13075-1.53025-.24925-.47475-.4565-.9705-.61925-1.4815-.16025-.50925-.5175-.93325-.99225-1.17775l-1.92975-.995v-1.3145l1.92975-.99425c.47475-.24475.832-.66925.99225-1.17875.16275-.511.36975-1.00675.61925-1.4815.24425-.47275.29125-1.023.13075-1.53025l-.70125-2.19625c.26875-.2985.553-.58275.8515-.8515l2.19525.70225c.508.16225 1.06.115 1.53325-.13075.47525-.24975.97125-.4575 1.4825-.621.5075-.161.93-.51775 1.17375-.99125l.99425-1.92875h1.3165l.99425 1.92875c.24375.4735.66625.83025 1.17375.99125.513.1645 1.01075.37275 1.48825.622.47225.24525 1.0225.292 1.52925.13l2.19525-.70125c.2975.269.581.55275.8495.8505l-.70125 2.19625c-.16025.50725-.11325 1.0575.13075 1.53025.24925.47475.4565.9705.61925 1.4815.16025.5095.5175.93375.99225 1.17875l1.92975.99425v1.314z" fill="#65b708" fill-rule="nonzero"/><path d="m110 32c0-12.13075-8.97275-22-20-22s-20 9.86925-20 22c-.03125 4.7885 1.4145 9.47025 4.14075 13.40725 2.115 3.773 3.38175 7.962 3.7125 12.27475-2.352 2.228-2.48225 5.9305-.2925 8.31825-2.2235 2.4375-2.05025 6.21575.387 8.4395 1.10725 1.01 2.55375 1.567 4.05225 1.5605h16c3.29925.0145 5.9855-2.6485 6-5.94775.0065-1.49875-.5505-2.94525-1.5605-4.05225 2.18975-2.3875 2.0595-6.09025-.2925-8.318.33075-4.314 1.59825-8.50375 3.71425-12.2775 2.725-3.93675 4.17025-8.6175 4.13875-13.40475zm-12 40h-16c-1.1045 0-2-.8955-2-2s.8955-2 2-2h16c1.1045 0 2 .8955 2 2s-.8955 2-2 2zm0-8h-16c-1.1045 0-2-.8955-2-2s.8955-2 2-2h16c1.104.001 1.999.896 2 2-.001 1.104-.896 1.999-2 2zm.309-7.96875c-.1045-.0055-.20325-.03125-.309-.03125h-16c-.10575 0-.2045.02575-.309.03125-.48225-4.5615-1.93875-8.96625-4.271-12.916-2.2565-3.265-3.45075-7.1465-3.42-11.11525 0-9.92475 7.17775-18 16-18s16 8.07525 16 18c.031 3.9675-1.1625 7.848-3.418 11.11225-2.33325 3.9505-3.7905 8.35625-4.273 12.919z" fill="#4a4a4a" fill-rule="nonzero"/><g fill="#65b708"><path d="m78 30h4c.00475-4.41625 3.58375-7.99525 8-8v-4c-6.6245.00725-11.99275 5.3755-12 12z"/><path d="m88 0h4v6h-4z"/><path d="m114 24h6v4h-6z"/><path d="m60 24h6v4h-6z"/><path d="m68.9071825 7.907777h3.9999616v5.9999425h-3.9999616z" transform="matrix(.70710678 -.70710678 .70710678 .70710678 13.055285 53.333741)"/><path d="m106.096991 8.90816841h5.999943v3.99996159h-5.999943z" transform="matrix(.70710678 -.70710678 .70710678 .70710678 24.240534 80.338125)"/></g><path d="m58 58h4v4h-4z" fill="#9b9b9b"/><path d="m66 58h4v4h-4z" fill="#9b9b9b"/><path d="m66 66h4v4h-4z" fill="#64b708"/><path d="m66 74h4v4h-4z" fill="#9b9b9b"/><path d="m66 82h4v4h-4z" fill="#64b708"/><path d="m66 90h4v4h-4z" fill="#9b9b9b"/><path d="m66 98h4v4h-4z" fill="#64b708"/><path d="m90 82h4v4h-4z" fill="#9b9b9b"/><path d="m90 90h4v4h-4z" fill="#64b708"/><path d="m90 98h4v4h-4z" fill="#9b9b9b"/><path d="m74 98h4v4h-4z" fill="#9b9b9b"/><path d="m82 98h4v4h-4z" fill="#64b708"/></g></svg>

<?xml version="1.0" encoding="UTF-8"?>
<svg width="120px" height="120px" viewBox="0 0 120 120" version="1.1" xmlns="http://www.w3.org/2000/svg" xmlns:xlink="http://www.w3.org/1999/xlink">
    <!-- Generator: Sketch 52.1 (67048) - http://www.bohemiancoding.com/sketch -->
    <title>Group 14</title>
    <desc>Created with Sketch.</desc>
    <g id="Page-1" stroke="none" stroke-width="1" fill="none" fill-rule="evenodd">
        <g id="Hamon_Home" transform="translate(-333.000000, -3147.000000)">
            <g id="Culture_section" transform="translate(-911.000000, 2967.000000)">
                <g id="Excellence_sec" transform="translate(1179.000000, 180.000000)">
                    <g id="Group-14" transform="translate(65.000000, 0.000000)">
                        <path d="M61.664,84.8905 L54,73.3945 L54,63 C54,48.08825 41.91175,36 27,36 C12.08825,36 8.91076708e-16,48.08825 8.91076708e-16,63 L8.91076708e-16,118 C-0.00025,119.10425 0.89475,119.99975 1.999,120 L24,120 C25.10425,120.00025 25.99975,119.10525 26,118.001 L26,104 L52,104 C53.10425,104.00025 53.99975,103.10525 54,102.001 L54,88 L60,88 C61.1045,88 62,87.10475 62,86.00025 C62,85.60525 61.88325,85.21925 61.664,84.8905 Z M52,84 C50.89575,83.99975 50.00025,84.89475 50,85.999 C50,85.99925 50,85.99975 50,86 L50,100 L24,100 C22.89575,99.99975 22.00025,100.89475 22,101.999 C22,101.99925 22,101.99975 22,102 L22,116 L4,116 L4,63 C4,50.2975 14.2975,40 27,40 C39.7025,40 50,50.2975 50,63 L50,74 C50.00025,74.39475 50.117,74.78075 50.336,75.1095 L56.26375,84 L52,84 Z" id="Shape" fill="#4A4A4A" fill-rule="nonzero"></path>
                        <path d="M28,54 C24.68625,54 22,56.68625 22,60 C22.0035,63.31225 24.68775,65.9965 28,66 C31.31375,66 34,63.31375 34,60 C34,56.68625 31.31375,54 28,54 Z M28,62 C26.8955,62 26,61.1045 26,60 C26.001,58.896 26.896,58.001 28,58 C29.1045,58 30,58.8955 30,60 C30,61.1045 29.1045,62 28,62 Z" id="Shape" fill="#62B60A" fill-rule="nonzero"></path>
                        <path d="M42.7755,56.34475 L40.465,55.15525 C40.39475,54.9755 40.3205,54.79575 40.2405,54.61725 L41.0335,52.13675 C41.231,51.51525 41.11375,50.8365 40.719,50.3175 C39.84875,49.1745 38.8285,48.154 37.68575,47.28325 C37.16575,46.888 36.486,46.77025 35.8635,46.96775 L33.383,47.75975 C33.20525,47.68075 33.0255,47.6055 32.846,47.53525 L31.6545,45.22475 C31.312,44.559 30.626,44.1405 29.87725,44.14075 L26.12325,44.14075 C25.3745,44.1405 24.6885,44.559 24.346,45.22475 L23.1545,47.53525 C22.97475,47.6055 22.797,47.68075 22.61925,47.75975 L20.13875,46.96675 C19.51625,46.76825 18.83625,46.8855 18.3165,47.28125 C17.1735,48.153 16.15275,49.17425 15.28125,50.31725 C14.88675,50.8365 14.76925,51.515 14.96675,52.1365 L15.75975,54.617 C15.67975,54.79575 15.6055,54.9755 15.53525,55.155 L13.22475,56.3445 C12.559,56.68775 12.14075,57.37375 12.14075,58.12275 L12.14075,61.8755 C12.1405,62.62425 12.559,63.31025 13.22475,63.65275 L15.53525,64.84425 C15.6055,65.024 15.67975,65.20275 15.75975,65.38225 L14.96675,67.86275 C14.76925,68.48425 14.88675,69.163 15.28125,69.682 C16.1515,70.825 17.17175,71.8455 18.3145,72.71625 C18.83325,73.11425 19.5145,73.23225 20.13675,73.03175 L22.61725,72.23975 C22.795,72.31875 22.97475,72.394 23.15425,72.46425 L24.34575,74.77475 C24.68825,75.4405 25.37425,75.859 26.123,75.85875 L29.877,75.85875 C30.62575,75.859 31.31175,75.4405 31.65425,74.77475 L32.84575,72.46425 C33.0255,72.394 33.20325,72.31875 33.38275,72.23975 L35.86125,73.03175 C36.483,73.22875 37.1615,73.112 37.6815,72.71825 C38.82625,71.84775 39.84775,70.8265 40.7185,69.682 C41.113,69.16275 41.23025,68.48425 41.033,67.86275 L40.24,65.38225 C40.32,65.2035 40.39425,65.02375 40.4645,64.84425 L42.775,63.65475 C43.44075,63.3115 43.859,62.62525 43.859,61.8765 L43.859,58.1225 C43.8595,57.37425 43.44125,56.688 42.7755,56.34475 Z M39.8595,60.65725 L37.92975,61.6515 C37.455,61.89625 37.09775,62.32075 36.9375,62.83025 C36.77475,63.34125 36.56775,63.837 36.31825,64.31175 C36.07425,64.7845 36.027,65.33475 36.1875,65.842 L36.88875,68.03825 C36.6205,68.33625 36.33675,68.62025 36.03925,68.88875 L33.844,68.1875 C33.33725,68.0255 32.78675,68.07225 32.31475,68.3175 C31.83725,68.56675 31.3395,68.775 30.8265,68.9395 C30.319,69.1005 29.8965,69.45725 29.65275,69.93075 L28.6585,71.8595 L27.342,71.8595 L26.34775,69.93075 C26.104,69.45725 25.6815,69.1005 25.174,68.9395 C24.661,68.775 24.16325,68.56675 23.68575,68.3175 C23.21375,68.07225 22.66325,68.0255 22.1565,68.1875 L19.96125,68.88875 C19.66375,68.61975 19.38025,68.336 19.11175,68.03825 L19.813,65.842 C19.97325,65.33475 19.92625,64.7845 19.68225,64.31175 C19.433,63.837 19.22575,63.34125 19.063,62.83025 C18.90275,62.321 18.5455,61.897 18.07075,61.6525 L16.141,60.6575 L16.141,59.343 L18.07075,58.34875 C18.5455,58.104 18.90275,57.6795 19.063,57.17 C19.22575,56.659 19.43275,56.16325 19.68225,55.6885 C19.9265,55.21575 19.9735,54.6655 19.813,54.15825 L19.11175,51.962 C19.3805,51.6635 19.66475,51.37925 19.96325,51.1105 L22.1585,51.81275 C22.6665,51.975 23.2185,51.92775 23.69175,51.682 C24.167,51.43225 24.663,51.2245 25.17425,51.061 C25.68175,50.9 26.10425,50.54325 26.348,50.06975 L27.34225,48.141 L28.65875,48.141 L29.653,50.06975 C29.89675,50.54325 30.31925,50.9 30.82675,51.061 C31.33975,51.2255 31.8375,51.43375 32.315,51.683 C32.78725,51.92825 33.3375,51.975 33.84425,51.813 L36.0395,51.11175 C36.337,51.38075 36.6205,51.6645 36.889,51.96225 L36.18775,54.1585 C36.0275,54.66575 36.0745,55.216 36.3185,55.68875 C36.56775,56.1635 36.775,56.65925 36.93775,57.17025 C37.098,57.67975 37.45525,58.104 37.93,58.349 L39.85975,59.34325 L39.85975,60.65725 L39.8595,60.65725 Z" id="Shape" fill="#65B708" fill-rule="nonzero"></path>
                        <path d="M110,32 C110,19.86925 101.02725,10 90,10 C78.97275,10 70,19.86925 70,32 C69.96875,36.7885 71.4145,41.47025 74.14075,45.40725 C76.25575,49.18025 77.5225,53.36925 77.85325,57.682 C75.50125,59.91 75.371,63.6125 77.56075,66.00025 C75.33725,68.43775 75.5105,72.216 77.94775,74.43975 C79.055,75.44975 80.5015,76.00675 82,76.00025 L98,76.00025 C101.29925,76.01475 103.9855,73.35175 104,70.0525 C104.0065,68.55375 103.4495,67.10725 102.4395,66.00025 C104.62925,63.61275 104.499,59.91 102.147,57.68225 C102.47775,53.36825 103.74525,49.1785 105.86125,45.40475 C108.58625,41.468 110.0315,36.78725 110,32 Z M98,72 L82,72 C80.8955,72 80,71.1045 80,70 C80,68.8955 80.8955,68 82,68 L98,68 C99.1045,68 100,68.8955 100,70 C100,71.1045 99.1045,72 98,72 Z M98,64 L82,64 C80.8955,64 80,63.1045 80,62 C80,60.8955 80.8955,60 82,60 L98,60 C99.104,60.001 99.999,60.896 100,62 C99.999,63.104 99.104,63.999 98,64 Z M98.309,56.03125 C98.2045,56.02575 98.10575,56 98,56 L82,56 C81.89425,56 81.7955,56.02575 81.691,56.03125 C81.20875,51.46975 79.75225,47.065 77.42,43.11525 C75.1635,39.85025 73.96925,35.96875 74,32 C74,22.07525 81.17775,14 90,14 C98.82225,14 106,22.07525 106,32 C106.031,35.9675 104.8375,39.848 102.582,43.11225 C100.24875,47.06275 98.7915,51.4685 98.309,56.03125 Z" id="Shape" fill="#4A4A4A" fill-rule="nonzero"></path>
                        <path d="M78,30 L82,30 C82.00475,25.58375 85.58375,22.00475 90,22 L90,18 C83.3755,18.00725 78.00725,23.3755 78,30 Z" id="Path" fill="#65B708"></path>
                        <rect id="Rectangle" fill="#65B708" x="88" y="0" width="4" height="6"></rect>
                        <rect id="Rectangle" fill="#65B708" x="114" y="24" width="6" height="4"></rect>
                        <rect id="Rectangle" fill="#65B708" x="60" y="24" width="6" height="4"></rect>
                        <polygon id="Rectangle" fill="#65B708" transform="translate(70.907163, 10.907748) rotate(-45.000000) translate(-70.907163, -10.907748) " points="68.9071825 7.907777 72.9071441 7.907777 72.9071441 13.9077195 68.9071825 13.9077195"></polygon>
                        <polygon id="Rectangle" fill="#65B708" transform="translate(109.096962, 10.908149) rotate(-45.000000) translate(-109.096962, -10.908149) " points="106.096991 8.90816841 112.096934 8.90816841 112.096934 12.90813 106.096991 12.90813"></polygon>
                        <rect id="Rectangle" fill="#9B9B9B" x="58" y="58" width="4" height="4"></rect>
                        <rect id="Rectangle" fill="#9B9B9B" x="66" y="58" width="4" height="4"></rect>
                        <rect id="Rectangle" fill="#64B708" x="66" y="66" width="4" height="4"></rect>
                        <rect id="Rectangle" fill="#9B9B9B" x="66" y="74" width="4" height="4"></rect>
                        <rect id="Rectangle" fill="#64B708" x="66" y="82" width="4" height="4"></rect>
                        <rect id="Rectangle" fill="#9B9B9B" x="66" y="90" width="4" height="4"></rect>
                        <rect id="Rectangle" fill="#64B708" x="66" y="98" width="4" height="4"></rect>
                        <rect id="Rectangle" fill="#9B9B9B" x="90" y="82" width="4" height="4"></rect>
                        <rect id="Rectangle" fill="#64B708" x="90" y="90" width="4" height="4"></rect>
                        <rect id="Rectangle" fill="#9B9B9B" x="90" y="98" width="4" height="4"></rect>
                        <rect id="Rectangle" fill="#9B9B9B" x="74" y="98" width="4" height="4"></rect>
                        <rect id="Rectangle" fill="#64B708" x="82" y="98" width="4" height="4"></rect>
                    </g>
                </g>
            </g>
        </g>
    </g>
</svg>
